static/assets/template/assets/img/icons/essential/detailed/Briefcase.svg

<svg height="117" viewBox="0 0 143 117" width="143" xmlns="http://www.w3.org/2000/svg"><g fill="none" fill-rule="evenodd" transform="translate(2 1)"><path d="m93.2 20.2v7.4c0 4.9-3.5 8.9-7.8 8.9h-32.1c-4.3 0-7.8-4-7.8-8.9v-18.1c0-4.9 3.5-8.9 7.8-8.9h32.1c4.3 0 7.8 4 7.8 8.9v2.2m-41.4 8.1v7.8c0 .9.7 1.7 1.5 1.7h32.1c.8 0 1.5-.8 1.5-1.7v-18.1c0-.9-.7-1.7-1.5-1.7h-32.1c-.8 0-1.5.8-1.5 1.7v3.5" fill-rule="nonzero" stroke-linecap="round" stroke-linejoin="round" stroke-width="3"/><path d="m44.4 19.8h86.7c4.2 0 7.5 3.4 7.5 7.5v79.7c0 4.2-3.4 7.5-7.5 7.5h-123.5c-4.2 0-7.5-3.4-7.5-7.5v-79.7c0-4.2 3.4-7.5 7.5-7.5z" fill-rule="nonzero"/><path d="m138.6 30.4v76.9c0 4-3.3 7.3-7.3 7.3h-119.5c-4 0-7.3-3.3-7.3-7.3v-76.9c0-4 3.3-7.3 7.3-7.3h119.5c4.1 0 7.3 3.3 7.3 7.3z" fill-rule="nonzero"/><path d="m138.6 55.9v6.1c-14.4 7-40.8 11.6-70.9 11.6-25.4 0-48-3.3-63.2-8.5v-6.1c15.1 5.2 37.8 8.5 63.2 8.5 30.2 0 56.5-4.7 70.9-11.6z" fill-rule="nonzero"/><path d="m138.6 30.4v76.9c0 4-3.3 7.3-7.3 7.3h-119.5c-4 0-7.3-3.3-7.3-7.3 0-4.9 4-8.9 8.9-8.9h116.7c4.6 0 8.3-3.7 8.3-8.3v-60.7c.2.3.2.7.2 1z" fill-rule="nonzero"/><g stroke-linecap="round" stroke-linejoin="round" stroke-width="3"><path d="m75.1 68.8c-1.9 0-3.9.1-5.8.1-26.7 0-50.9-4.5-69.1-11.9"/><path d="m138.5 56.9c-14.5 5.9-32.8 10-53.2 11.4"/><path d="m38.3 19.8h6.1"/><path d="m21.6 19.8h3.9"/><path d="m0 56.7v-29.4c0-4.2 3.4-7.5 7.5-7.5h7"/><path d="m138.6 68.7v38.3c0 4.2-3.4 7.5-7.5 7.5h-123.5c-4.2 0-7.5-3.4-7.5-7.5v-37"/><path d="m44.4 19.8h86.7c4.2 0 7.5 3.4 7.5 7.5v29.1"/></g><path d="m73.5 79.4h-8.3c-1.8 0-3.2-1.4-3.2-3.2v-12.2c0-1.8 1.4-3.2 3.2-3.2h8.3c1.8 0 3.2 1.4 3.2 3.2v12.2c-.1 1.8-1.5 3.2-3.2 3.2z" fill-rule="nonzero"/><path d="m62 64c0-1.8 1.4-3.2 3.2-3.2" stroke-linecap="round" stroke-linejoin="round" stroke-width="3"/><path d="m70.6 60.8h2.9c1.8 0 3.2 1.4 3.2 3.2v12.2c0 1.8-1.4 3.2-3.2 3.2h-8.3c-1.8 0-3.2-1.4-3.2-3.2v-7.5" stroke-linecap="round" stroke-linejoin="round" stroke-width="3"/></g></svg>

<?xml version="1.0" encoding="UTF-8"?>
<svg width="143px" height="117px" viewBox="0 0 143 117" version="1.1" xmlns="http://www.w3.org/2000/svg" xmlns:xlink="http://www.w3.org/1999/xlink">
    <!-- Generator: Sketch 51.2 (57519) - http://www.bohemiancoding.com/sketch -->
    <title>Briefcase</title>
    <desc>Created with Sketch.</desc>
    <defs></defs>
    <g id="Page-1" stroke="none" stroke-width="1" fill="none" fill-rule="evenodd">
        <g id="Briefcase" transform="translate(2.000000, 1.000000)">
            <path d="M93.2,20.2 L93.2,27.6 C93.2,32.5 89.7,36.5 85.4,36.5 L53.3,36.5 C49,36.5 45.5,32.5 45.5,27.6 L45.5,9.5 C45.5,4.6 49,0.6 53.3,0.6 L85.4,0.6 C89.7,0.6 93.2,4.6 93.2,9.5 L93.2,11.7 M51.8,19.8 L51.8,27.6 C51.8,28.5 52.5,29.3 53.3,29.3 L85.4,29.3 C86.2,29.3 86.9,28.5 86.9,27.6 L86.9,9.5 C86.9,8.6 86.2,7.8 85.4,7.8 L53.3,7.8 C52.5,7.8 51.8,8.6 51.8,9.5 L51.8,13" id="Shape" stroke-width="3" class="stroke-primary fill-primary-200" fill-rule="nonzero" stroke-linecap="round" stroke-linejoin="round"></path>
            <path d="M44.4,19.8 L131.1,19.8 C135.3,19.8 138.6,23.2 138.6,27.3 L138.6,107 C138.6,111.2 135.2,114.5 131.1,114.5 L7.6,114.5 C3.4,114.5 0.1,111.1 0.1,107 L0.1,27.3 C0.1,23.1 3.5,19.8 7.6,19.8 L44.4,19.8 Z" id="Shape" class="fill-neutral" fill-rule="nonzero"></path>
            <path d="M138.6,30.4 L138.6,107.3 C138.6,111.3 135.3,114.6 131.3,114.6 L11.8,114.6 C7.8,114.6 4.5,111.3 4.5,107.3 L4.5,30.4 C4.5,26.4 7.8,23.1 11.8,23.1 L131.3,23.1 C135.4,23.1 138.6,26.4 138.6,30.4 Z" id="Shape" class="fill-primary-100" fill-rule="nonzero"></path>
            <path d="M138.6,55.9 L138.6,62 C124.2,69 97.8,73.6 67.7,73.6 C42.3,73.6 19.7,70.3 4.5,65.1 L4.5,59 C19.6,64.2 42.3,67.5 67.7,67.5 C97.9,67.5 124.2,62.8 138.6,55.9 Z" id="Shape" class="fill-primary-200" fill-rule="nonzero"></path>
            <path d="M138.6,30.4 L138.6,107.3 C138.6,111.3 135.3,114.6 131.3,114.6 L11.8,114.6 C7.8,114.6 4.5,111.3 4.5,107.3 C4.5,102.4 8.5,98.4 13.4,98.4 L130.1,98.4 C134.7,98.4 138.4,94.7 138.4,90.1 L138.4,29.4 C138.6,29.7 138.6,30.1 138.6,30.4 Z" id="Shape" class="fill-primary-200" fill-rule="nonzero"></path>
            <path d="M75.1,68.8 C73.2,68.8 71.2,68.9 69.3,68.9 C42.6,68.9 18.4,64.4 0.2,57" id="Shape" class="stroke-primary" stroke-width="3" stroke-linecap="round" stroke-linejoin="round"></path>
            <path d="M138.5,56.9 C124,62.8 105.7,66.9 85.3,68.3" id="Shape" class="stroke-primary" stroke-width="3" stroke-linecap="round" stroke-linejoin="round"></path>
            <path d="M38.3,19.8 L44.4,19.8" id="Shape" class="stroke-primary" stroke-width="3" stroke-linecap="round" stroke-linejoin="round"></path>
            <path d="M21.6,19.8 L25.5,19.8" id="Shape" class="stroke-primary" stroke-width="3" stroke-linecap="round" stroke-linejoin="round"></path>
            <path d="M0,56.7 L0,27.3 C0,23.1 3.4,19.8 7.5,19.8 L14.5,19.8" id="Shape" class="stroke-primary" stroke-width="3" stroke-linecap="round" stroke-linejoin="round"></path>
            <path d="M138.6,68.7 L138.6,107 C138.6,111.2 135.2,114.5 131.1,114.5 L7.6,114.5 C3.4,114.5 0.1,111.1 0.1,107 L0.1,70" id="Shape" class="stroke-primary" stroke-width="3" stroke-linecap="round" stroke-linejoin="round"></path>
            <path d="M44.4,19.8 L131.1,19.8 C135.3,19.8 138.6,23.2 138.6,27.3 L138.6,56.4" id="Shape" class="stroke-primary" stroke-width="3" stroke-linecap="round" stroke-linejoin="round"></path>
            <path d="M73.5,79.4 L65.2,79.4 C63.4,79.4 62,78 62,76.2 L62,64 C62,62.2 63.4,60.8 65.2,60.8 L73.5,60.8 C75.3,60.8 76.7,62.2 76.7,64 L76.7,76.2 C76.6,78 75.2,79.4 73.5,79.4 Z" id="Shape" class="fill-neutral" fill-rule="nonzero"></path>
            <path d="M62,64 C62,62.2 63.4,60.8 65.2,60.8" id="Shape" class="stroke-primary" stroke-width="3" stroke-linecap="round" stroke-linejoin="round"></path>
            <path d="M70.6,60.8 L73.5,60.8 C75.3,60.8 76.7,62.2 76.7,64 L76.7,76.2 C76.7,78 75.3,79.4 73.5,79.4 L65.2,79.4 C63.4,79.4 62,78 62,76.2 L62,68.7" id="Shape" class="stroke-primary" stroke-width="3" stroke-linecap="round" stroke-linejoin="round"></path>
        </g>
    </g>
</svg>
